X:1
T: Minuet in G major
T:Bach's
%%score { ( 1 2 3 ) | ( 4 5 6 ) }
L:1/8
Q:1/4=160
M:3/4
K:G
V:1 treble nm="Piano, Treble Clef         " snm="Pno"
V:2 treble 
V:3 treble 
V:4 bass 
V:5 bass 
V:6 bass 
V:1
 d2 z2 Bc | .d4 z2 | e4 z2 | g2 .G2 .G2 | c2 dc BA | B2 cB AG | F2 z A .BG | (3B/c/B/.c/.B/ z2 z2 | %8
 d2 z2 Bc | d2 .G2 .G2 | e2 cd ef | g2 .G2 .G2 | c2 .d2 BA | B2 cB AG | z2 B2 z2 | G4 z2 | %16
 b4 z g- | g2 z2 z2 | g2 ef gd | ^c2 Bc A2 | z B ^cd ef | .g2 .f2 .e2 | .f2 .A2 .^c2 | d6 | %24
 d2 GF G2 | e2 GF G2 | d2 c2 B2 | AG FG .A2 | DE FG AB | .c2 .B2 .A2 | Bd G2 F2 | [B,DG]6 |] %32
V:2
 z2 z .A3 | z2 .G2 .G2 | z2 cd ef | x6 | x6 | x6 | z2 G2 z2 | x6 | z2 z .A3 | x6 | x6 | x6 | %12
 z2 z .c3 | x6 | A2 z A GF | x6 | z2 ga .b2 | a2 de fd | x6 | x6 | A2 z2 z2 | x6 | x6 | x6 | x6 | %25
 x6 | x6 | x6 | x6 | x6 | x6 | x6 |] %32
V:3
 z2 G2 z2 | x6 | x6 | x6 | x6 | x6 | x6 | z2 A4- | A2 G2 z2 | x6 | x6 | x6 | x6 | x6 | x6 | x6 | %16
 x6 | x6 | x6 | x6 | x6 | x6 | x6 | x6 | x6 | x6 | x6 | x6 | x6 | x6 | x6 | x6 |] %32
V:4
 [G,B,D]4 A,2 | B,6 | C6 | B,6 | A,6 | G,6 | .D2 .B,2 G,2 | D2 z C B,A, | B,4 A,2 | G,2 .B,2 G,2 | %10
 C6 | B,2 CB, A,G, | A,4 F,2 | G,4 B,2 | C2 D2 D,2 | G,4 G,,2 | G,6 | F,6 | E,2 .G,2 E,2 | %19
 A,4 A,,2 | A,6 | .B,2 .D2 .^C2 | .D2 .F,2 .A,2 | D2 D,2[K:treble] C2 | z2 D4 | z2 E4 | %26
[K:bass] B,2 A,2 G,2 | D6 | D,6 | E,2 .G,2 .F,2 | G,2 B,,2 .D,2 | .G,2 .D,2 G,,2 |] %32
V:5
 x6 | x6 | x6 | x6 | x6 | x6 | x6 | z2 D,2 z2 | x6 | x6 | x6 | x6 | x6 | x6 | x6 | x6 | x6 | x6 | %18
 x6 | x6 | x6 | x6 | x6 | x4[K:treble] x2 | z2 z2 .B,2 | z2 z2 C2 |[K:bass] x6 | x6 | x6 | x6 | %30
 x6 | x6 |] %32
V:6
 x6 | x6 | x6 | x6 | x6 | x6 | x6 | x6 | x6 | x6 | x6 | x6 | x6 | x6 | x6 | x6 | x6 | x6 | x6 | %19
 x6 | x6 | x6 | x6 | x4[K:treble] x2 | B,4 z2 | C4 z2 |[K:bass] x6 | x6 | x6 | x6 | x6 | x6 |] %32

